src/icons/svg/copy.svg

<svg width="20" height="20" viewBox="0 0 20 20" fill="none" xmlns="http://www.w3.org/2000/svg">
<rect x="4.6" y="7.6" width="7.8" height="7.8" rx="0.9" stroke="#19191C" stroke-width="1.2"/>
<path fill-rule="evenodd" clip-rule="evenodd" d="M9.99159 5.2H12.9916C13.7326 5.2 14.1677 5.20255 14.4776 5.24422C14.6019 5.26093 14.6683 5.2797 14.7001 5.29153C14.7119 5.32325 14.7307 5.38965 14.7474 5.51399C14.789 5.82391 14.7916 6.25897 14.7916 7V10C14.7916 10.741 14.789 11.1761 14.7474 11.486C14.7307 11.6104 14.7119 11.6768 14.7001 11.7085C14.6683 11.7203 14.6019 11.7391 14.4776 11.7558C14.3438 11.7738 14.1866 11.7845 13.9916 11.7908V12C13.9916 12.3783 13.9916 12.7061 13.9832 12.9916C14.765 12.9686 15.2304 12.8825 15.5522 12.5607C15.9916 12.1213 15.9916 11.4142 15.9916 10V7C15.9916 5.58579 15.9916 4.87868 15.5522 4.43934C15.1129 4 14.4058 4 12.9916 4H9.99159C8.57737 4 7.87027 4 7.43093 4.43934C7.10912 4.76115 7.02303 5.22662 7 6.00841C7.28553 6 7.61326 6 7.99159 6H8.20077C8.20712 5.80496 8.21781 5.64781 8.23581 5.51399C8.25252 5.38965 8.27129 5.32325 8.28312 5.29153C8.31484 5.2797 8.38124 5.26093 8.50558 5.24422C8.8155 5.20255 9.25056 5.2 9.99159 5.2ZM14.7247 5.3034C14.7242 5.30359 14.7205 5.30184 14.7148 5.29759C14.7224 5.30109 14.7252 5.30321 14.7247 5.3034ZM14.694 5.27678C14.6897 5.27114 14.688 5.26735 14.6882 5.26686C14.6884 5.26638 14.6905 5.26919 14.694 5.27678ZM14.6882 11.7331C14.688 11.7326 14.6898 11.7289 14.694 11.7232C14.6905 11.7308 14.6884 11.7336 14.6882 11.7331ZM14.7148 11.7024C14.7204 11.6982 14.7242 11.6964 14.7247 11.6966C14.7252 11.6968 14.7224 11.6989 14.7148 11.7024ZM8.29499 5.26686C8.29518 5.26735 8.29343 5.27114 8.28918 5.27678C8.29268 5.26919 8.2948 5.26637 8.29499 5.26686ZM8.26836 5.29759C8.26273 5.30184 8.25894 5.30359 8.25845 5.3034C8.25796 5.30321 8.26078 5.30109 8.26836 5.29759Z" fill="#19191C"/>
</svg>

<svg xmlns="http://www.w3.org/2000/svg" width="20" height="20" fill="none"><rect width="7.8" height="7.8" x="4.6" y="7.6" stroke="#19191C" stroke-width="1.2" rx=".9"/><path fill="#19191C" fill-rule="evenodd" d="M9.992 5.2h3c.74 0 1.176.003 1.486.044.124.017.19.036.222.048.012.031.03.098.047.222.042.31.045.745.045 1.486v3c0 .741-.003 1.176-.045 1.486-.016.124-.035.19-.047.223-.032.011-.098.03-.222.047a5 5 0 0 1-.486.035V12c0 .378 0 .706-.009.992.782-.023 1.247-.11 1.57-.431.439-.44.439-1.147.439-2.561V7c0-1.414 0-2.121-.44-2.56S14.406 4 12.992 4h-3C8.577 4 7.87 4 7.43 4.44c-.322.321-.408.787-.431 1.568C7.286 6 7.613 6 7.992 6H8.2a5 5 0 0 1 .035-.486c.017-.124.035-.19.047-.222.032-.012.098-.031.223-.048.31-.041.745-.044 1.486-.044m4.733.103-.01-.005zm-.031-.026-.006-.01zm-.006 6.456.006-.01zm.027-.03q.009-.008.01-.006zm-6.42-6.436-.006.01zm-.027.03q-.009.008-.01.006z" clip-rule="evenodd"/></svg>
